X:24
T: (hangszeres)
K: F
M: 4/4
L: 1/4
gggd | c>d ec | f2 f2 | 
gggd | f>d cc | B2 B2 | 
c>B AG | F>G AF | B2 B2 | 
fgdd | f>B BA | G2 G2 | 

